front/assets/icons/like.svg

<svg width="20" height="18" viewBox="0 0 21 18" fill="none" xmlns="http://www.w3.org/2000/svg">
    <path fill-rule="evenodd" clip-rule="evenodd" d="M10.6152 17.0752C11.853 15.8497 14.136 13.6047 14.9531 12.7885C15.1279 12.6137 15.1279 12.6137 15.3025 12.4388C16.312 11.4265 17.1749 10.5438 17.8881 9.79002C19.9551 7.60305 19.9855 4.39696 18.0643 2.3769C16.2177 0.433484 13.2591 0.441707 11.422 2.39611L10.6153 3.25435L9.8086 2.39611C7.97153 0.441691 5.01235 0.433468 3.1651 2.37708C1.24513 4.39676 1.27598 7.60304 3.34219 9.78972C4.05565 10.544 4.91839 11.4268 5.92763 12.4389C6.10317 12.6148 6.10317 12.6148 6.279 12.7905C7.10279 13.6135 9.37984 15.8524 10.6152 17.0752Z" stroke="#686868" stroke-width="2"/>
</svg>

<svg width="20" height="18" viewBox="0 0 21 18" fill="none" xmlns="http://www.w3.org/2000/svg"><path clip-rule="evenodd" d="M10.615 17.075c1.238-1.225 3.521-3.47 4.338-4.286l.35-.35a144.32 144.32 0 002.585-2.649c2.067-2.187 2.097-5.393.176-7.413-1.846-1.944-4.805-1.935-6.642.02l-.807.857-.806-.858C7.972.442 5.012.433 3.165 2.377c-1.92 2.02-1.889 5.226.177 7.413a143.614 143.614 0 002.937 3c.824.824 3.1 3.062 4.336 4.285z" stroke="#686868" stroke-width="2"/></svg>
